icons/lines/user-cirlce-add.svg

<svg xmlns="http://www.w3.org/2000/svg" width="24" height="24" viewBox="0 0 24 24" fill="none" stroke="currentColor" stroke-width="2" stroke-linecap="round" stroke-linejoin="round" >
  <path d="M11.4599 13.73C13.0118 13.73 14.2699 12.4719 14.2699 10.92C14.2699 9.36806 13.0118 8.10999 11.4599 8.10999C9.90798 8.10999 8.6499 9.36806 8.6499 10.92C8.6499 12.4719 9.90798 13.73 11.4599 13.73Z"/>
  <path d="M16.65 20.2C16.65 17.87 14.33 15.97 11.46 15.97C8.59002 15.97 6.27002 17.86 6.27002 20.2"/>
  <path d="M21 12.5C21 17.75 16.75 22 11.5 22C6.25 22 2 17.75 2 12.5C2 7.25 6.25 3 11.5 3C12.81 3 14.06 3.25999 15.2 3.73999C15.07 4.13999 15 4.56 15 5C15 5.75 15.21 6.46 15.58 7.06C15.78 7.4 16.04 7.70997 16.34 7.96997C17.04 8.60997 17.97 9 19 9C19.44 9 19.86 8.92998 20.25 8.78998C20.73 9.92998 21 11.19 21 12.5Z"/>
  <path d="M23 5C23 5.32 22.96 5.62999 22.88 5.92999C22.79 6.32999 22.63 6.72 22.42 7.06C21.94 7.87 21.17 8.49998 20.25 8.78998C19.86 8.92998 19.44 9 19 9C17.97 9 17.04 8.60997 16.34 7.96997C16.04 7.70997 15.78 7.4 15.58 7.06C15.21 6.46 15 5.75 15 5C15 4.56 15.07 4.13999 15.2 3.73999C15.39 3.15999 15.71 2.64002 16.13 2.21002C16.86 1.46002 17.88 1 19 1C20.18 1 21.25 1.51002 21.97 2.33002C22.61 3.04002 23 3.98 23 5Z" stroke-miterlimit="10"/>
  <path d="M20.4898 4.97998H17.5098" stroke-miterlimit="10"/>
  <path d="M19 3.52002V6.51001" stroke-miterlimit="10"/>
  </svg>

<svg xmlns="http://www.w3.org/2000/svg" width="24" height="24" viewBox="0 0 24 24" fill="none" stroke="currentColor" stroke-width="2" stroke-linecap="round" stroke-linejoin="round">
  <path d="M16.65 20.2c0-2.33-2.32-4.23-5.19-4.23s-5.19 1.89-5.19 4.23" />
  <path d="M19 3.52v2.99" />
  <path d="M20.49 4.98h-2.98" />
  <path d="M21 12.5a9.496 9.496 0 1 1-5.8-8.76 4 4 0 0 0 .38 3.32 3.7 3.7 0 0 0 .76.91A4 4 0 0 0 19 9a3.7 3.7 0 0 0 1.25-.21A9.6 9.6 0 0 1 21 12.5" />
  <path d="M23 5a3.6 3.6 0 0 1-.12.93 3.7 3.7 0 0 1-.46 1.13 3.9 3.9 0 0 1-2.17 1.73A3.7 3.7 0 0 1 19 9a4 4 0 0 1-2.66-1.03 3.7 3.7 0 0 1-.76-.91A4 4 0 0 1 19 1a4 4 0 0 1 4 4" />
  <circle cx="11.46" cy="10.92" r="2.81" />
</svg>
